public/train-bullets/3.svg

<?xml version="1.0" standalone="no"?>
<!DOCTYPE svg PUBLIC "-//W3C//DTD SVG 1.1//EN" "http://www.w3.org/Graphics/SVG/1.1/DTD/svg11.dtd">
<svg width="100%" height="100%" viewBox="0 0 90 90" version="1.1" xmlns="http://www.w3.org/2000/svg" xmlns:xlink="http://www.w3.org/1999/xlink" xml:space="preserve" style="fill-rule:evenodd;clip-rule:evenodd;stroke-linejoin:round;stroke-miterlimit:1.41421;">
    <g id="3">
        <circle cx="45" cy="45" r="45" style="fill:rgb(238,52,46);"/>
        <path d="M37.334,54.5052C37.334,56.3932 37.6378,57.9557 38.2454,59.1927C39.3739,61.4714 41.4247,62.6107 44.3978,62.6107C46.2207,62.6107 47.8103,61.9868 49.1667,60.7389C50.523,59.4911 51.2012,57.6953 51.2012,55.3516C51.2012,52.2483 49.9425,50.1758 47.4251,49.1341C45.9928,48.5482 43.7359,48.2552 40.6543,48.2552L40.6543,41.6146C43.6708,41.5712 45.7758,41.2782 46.9694,40.7357C49.031,39.8242 50.0618,37.9796 50.0618,35.2018C50.0618,33.4006 49.5356,31.9358 48.4831,30.8073C47.4306,29.6788 45.9494,29.1146 44.0397,29.1146C41.8479,29.1146 40.2365,29.809 39.2057,31.1979C38.1749,32.5868 37.6812,34.4423 37.7246,36.7643L29.0658,36.7643C29.1526,34.4206 29.554,32.1962 30.2702,30.0911C31.0297,28.2465 32.2233,26.543 33.8509,24.9805C35.0662,23.8737 36.5093,23.0273 38.1803,22.4414C39.8513,21.8555 41.9021,21.5625 44.3327,21.5625C48.8466,21.5625 52.487,22.7289 55.2539,25.0618C58.0208,27.3947 59.4043,30.5252 59.4043,34.4531C59.4043,37.2309 58.5796,39.5747 56.9303,41.4844C55.8887,42.678 54.8036,43.4918 53.6751,43.9258C54.5215,43.9258 55.7368,44.6528 57.321,46.1068C59.6864,48.2986 60.8691,51.2934 60.8691,55.0911C60.8691,59.0842 59.4857,62.5944 56.7188,65.6217C53.9518,68.6491 49.8557,70.1628 44.4303,70.1628C37.7463,70.1628 33.1022,67.9818 30.498,63.6198C29.1309,61.2977 28.3713,58.2595 28.2194,54.5052L37.334,54.5052Z" style="fill:white;fill-rule:nonzero;"/>
    </g>
</svg>

<svg xmlns="http://www.w3.org/2000/svg" xml:space="preserve" style="fill-rule:evenodd;clip-rule:evenodd;stroke-linejoin:round;stroke-miterlimit:1.41421" viewBox="0 0 90 90"><circle cx="45" cy="45" r="45" style="fill:#ee342e"/><path d="M37.334 54.505q0 2.832.911 4.688 1.693 3.417 6.153 3.418 2.734 0 4.769-1.872 2.034-1.872 2.034-5.387 0-4.656-3.776-6.218-2.149-.879-6.77-.879v-6.64q4.523-.066 6.314-.88 3.093-1.366 3.093-5.533 0-2.702-1.579-4.395t-4.443-1.692q-3.288 0-4.834 2.083-1.547 2.083-1.481 5.566h-8.66q.131-3.515 1.205-6.673 1.14-2.767 3.58-5.11 1.825-1.66 4.33-2.54 2.507-.878 6.153-.878 6.771 0 10.92 3.499 4.151 3.5 4.151 9.391 0 4.167-2.474 7.031-1.561 1.791-3.255 2.442 1.27 0 3.646 2.18 3.548 3.289 3.548 8.985 0 5.99-4.15 10.53-4.15 4.542-12.289 4.542-10.026 0-13.932-6.543-2.05-3.483-2.279-9.115z" style="fill:#fff;fill-rule:nonzero"/></svg>
